weblate_web/static/img/icon-monero.svg

<svg xmlns="http://www.w3.org/2000/svg" xmlns:svg="http://www.w3.org/2000/svg" id="svg10" width="23" height="23" version="1.1" viewBox="0 0 23 23"><metadata id="metadata16"/><title id="title2">7AFE0AC2-6252-40B2-95A6-45549388053D</title><desc id="desc4">Created with sketchtool.</desc><g id="Weblate" fill="none" fill-rule="evenodd" stroke="none" stroke-width="1" transform="translate(0.5,0.5)"><g id="Donate" fill="#2eccaa" fill-rule="nonzero" transform="translate(-346,-2776)"><g id="monero" transform="translate(346,2776)"><path id="Shape" d="M 11,0 C 4.9344686,0 0,4.9344686 0,11 0,17.065531 4.9344686,22 11,22 17.065084,22 22,17.065531 22,11 22,4.9344686 17.065084,0 11,0 Z m 0,20.166667 c -3.3837891,0 -6.3383382,-1.848104 -7.9263916,-4.583334 H 8.25 V 10.002767 L 10.964193,14.795349 13.75,9.9636027 v 5.6197303 h 5.176392 C 17.338338,18.318563 14.384237,20.166667 11,20.166667 Z M 19.744141,13.75 H 15.583333 V 6.4166667 H 13.679057 L 10.978516,11.100484 8.3260905,6.4166667 H 6.4166667 V 13.75 H 2.2558594 C 1.9823812,12.881449 1.8333333,11.957845 1.8333333,11 1.8333333,5.945577 5.945577,1.8333333 11,1.8333333 c 5.054423,0 9.166667,4.1122437 9.166667,9.1666667 0,0.957845 -0.149048,1.881449 -0.422526,2.75 z"/></g></g></g></svg>

<svg width="23" height="23" version="1.1" viewBox="0 0 23 23" xmlns="http://www.w3.org/2000/svg"><g transform="translate(.5 .5)" fill="none" fill-rule="evenodd"><g transform="translate(-346,-2776)" fill="#2eccaa" fill-rule="nonzero"><g transform="translate(346,2776)"><path d="m11 0c-6.0655 0-11 4.9345-11 11s4.9345 11 11 11c6.0651 0 11-4.9345 11-11s-4.9349-11-11-11zm0 20.167c-3.3838 0-6.3383-1.8481-7.9264-4.5833h5.1764v-5.5806l2.7142 4.7926 2.7858-4.8317v5.6197h5.1764c-1.5881 2.7352-4.5422 4.5833-7.9264 4.5833zm8.7441-6.4167h-4.1608v-7.3333h-1.9043l-2.7005 4.6838-2.6524-4.6838h-1.9094v7.3333h-4.1608c-0.27348-0.86855-0.42253-1.7922-0.42253-2.75 0-5.0544 4.1122-9.1667 9.1667-9.1667s9.1667 4.1122 9.1667 9.1667c0 0.95784-0.14905 1.8814-0.42253 2.75z"/></g></g></g></svg>
